!!!!SEGMENT: pl-sa--l-1636--053_anonim--keyboard-piece.krn
!!!cenid: 17xx:760
!!!COM: Anonim
!!!COM-rismID: pe30004985
!!!CDT:
!!!CNT:
!!!OTL: [Keyboard piece]
!!!PDT:
!!!AGN: Secular
!!!SMS-siglum: PL-SA
!!!SMS-shelfmark: L 1636
!!!SMS-shelfwork: 053 W
!!!SMS-variant:
!!!SMS-altvar:
!!!NIFC-rismSourceID: 1001076820
!!!NIFC-rismChildID: 1001076820
!!!NIFC-islandoraID:
!!!URL-pdf-islandora:
!!!URL-scan:
!!!IIIF:
!!!ONB-nifc: 14v, skan 0018, s. 3-4
!!!AIN: 2 empty
!!!key:
**kern	**kern
*part2	*part1
*staff2	*staff1
*Iempty	*Iempty
*I"	*I"
*I'keyb	*I'keyb
*clefF4	*clefG2
*k[b-]	*k[b-]
*F:	*F:
*M4/4	*M4/4
=1	=1
!LO:SIC:o:s:=:v:brak kreski taktowej	!
!LO:N:vis=0	!LO:SIC:o:s:=:v:brak kreski taktowej
!LO:SIC:o:s:=:v:wszystkie caudy z prawej	!LO:SIC:o:s:=:v:wszystkie caudy z prawej
1G/ 1D/ 1GG/	1dd/ 1b-/ 1g/
=2	=2
*	*^
1ryy	2ee-X/ 2cc/	1g\
.	2dd/ 2b-/	.
=3	=3	=3
*	*2\right	*
*	*	*^
[1D/ [1DD/	2.dd/	1a\	2g\
.	.	.	2f#X\
.	4cc/	.	.
=4	=4	=4	=4
1D/_ 1DD/_	1b-/	2ryy	2fn\
.	.	2g/	2e\
=5	=5	=5	=5
1D/_ 1DD/_	1a/	2g/	1d/
.	.	4f/	.
.	.	4e/	.
*	*	*v	*v
=6	=6	=6
*2\right	*	*
*^	*	*
2D/]	2DD/]	2a/ 2f/	[2d\
2G/	2BBn\	2g/	2d\]
=7	=7	=7	=7
2G/	2C\	2g/	2e\
2F#X/	2AA\	2cc/	2a\
*v	*v	*	*
*	*v	*v
=8	=8
4GG/	1b-/ 1g/ 1d/
4AA/	.
4BB-/	.
4C/	.
=9	=9
*^	*^
2ryy	4D\	1a/	2d\
.	4E\	.	.
2d/	4F\	.	2f\
.	4G\	.	.
=10	=10	=10	=10
2d/	1A\	1a/	2f\
4c#X/	.	.	4e\
!LO:SIC:o:s:=:v:4Bn	!	!	!
4B-/	.	.	4d\
!!LO:LB:g=original
=11	=11	=11	=11
!LO:SIC:o:s:=:v:2c#	!	!	!
2c/	2A\	1a/	2e\
2d/	2F\	.	2f\
=12	=12	=12	=12
2d/	2G\	2b-/	1e\
2c#X/	2A\	2a/	.
=13	=13	=13	=13
2F/	4D\	2a/	2f\ 2d\
.	4C\	.	.
2ryy	4BB-\	4dd/	2f\
.	4AA\	4cc/	.
=14	=14	=14	=14
2G/	4GG\	4b-/ 4g/	2d\
.	8AA\L	4a/ 4f/	.
.	8BB-\J	.	.
2ryy	4C\	4g/	2e\
.	4BB-\	8a/L	.
.	.	8b-/J	.
=15	=15	=15	=15
2E/	4AA\	4cc/	2e\
.	4GG\	4b-/	.
[2F/	4FF\	4a/	4f\
.	8GG\L	4g/	4e\
.	8AA\J	.	.
=16	=16	=16	=16
2F/]	4BB-\	4f/	[2d\
.	4AA\	8g/L	.
.	.	8a/J	.
2ryy	8GG\L	2b-/	2d\]
.	8AA\	.	.
.	8BB-\	.	.
.	8C\J	.	.
=17	=17	=17	=17
4G/	1D\	4b-/	1d\
8F#X/L	.	8a/L	.
8E/J	.	8g/J	.
2F#X/	.	2a/	.
=18	=18	=18	=18
2B-/	1D\	16a/LL	2ryy
.	.	16g/	.
.	.	16a/	.
.	.	16g/JJ	.
.	.	16a/LL	.
.	.	16g/	.
.	.	16a/	.
.	.	32g/L	.
.	.	32f/JJJ	.
*	*	*v	*v
16B-/LL	.	2g/
16A/	.	.
16B-/	.	.
16A/JJ	.	.
16B-/LL	.	.
16A/	.	.
!LO:N:vis=32	!	!
16B-/	.	.
!LO:N:vis=32	!	!
16A/JJ	.	.
*v	*v	*
=19	=19
*	*^
*	*	*^
1A\ 1D\	1a/	2g/	2ryy
.	.	2f/	4d\
.	.	.	4c\
*	*v	*v	*v
=20	=20
1G/ 1D/ 1GG/	1g/ 1d/ 1B-/
==	==
*-	*-
!!!system-decoration: [(s1,s2)]
!!!EED: Leszek Kubiak
!!!EEV: 2020-12-08
!!!ENC: Andrzej Borzym
!!!END: 2020-06-11
!!!YEC: Copyright 2022 Narodowy Instytut Fryderyka Chopina (https://polishscores.org)
!!!YEM: License CC-BY-4.0 (https://creativecommons.org/licenses/by/4.0)
